libs/ui/packages/crypto-icons/src/svg/GUP.svg

<svg width="24" height="24" viewBox="0 0 24 24" fill="none">
<path d="M11.9926 9.50904L9.90458 7.40604C10.531 6.3873 11.2314 5.41594 12.0001 4.49979C12.7675 5.41201 13.4669 6.37936 14.0926 7.39404L11.9926 9.50904ZM16.2811 11.6165C16.8706 13.268 17.7353 14.9195 16.9111 16.505C16.3866 17.5052 15.5734 18.3245 14.5771 18.8563C11.8628 20.2963 8.50283 19.2388 7.07333 16.505C6.24082 14.9195 7.21058 13.1375 7.80083 11.4868C8.34158 10.2695 8.88833 9.14754 9.50933 8.06904L11.9918 10.5695L14.4886 8.05554C15.1448 9.19104 15.7118 10.3595 16.2811 11.6173V11.6165Z" fill="#37DCD8"/>
</svg>

<svg width="24" height="24" viewBox="0 0 24 24" fill="none"><path fill="#37dcd8" d="M11.993 9.509 9.905 7.406A24.4 24.4 0 0 1 12 4.5c.768.912 1.467 1.88 2.093 2.894zm4.288 2.108c.59 1.651 1.454 3.302.63 4.888a5.63 5.63 0 0 1-2.334 2.351c-2.714 1.44-6.074.383-7.504-2.351-.832-1.585.138-3.367.728-5.018.54-1.217 1.087-2.34 1.708-3.418l2.483 2.5 2.497-2.513c.656 1.135 1.223 2.304 1.792 3.561"/></svg>
